X:1
T:In illo tempore
T:In illo tempore 
T:anonymus
C:anonymus
%%score [ 1 2 [ 3 4 ] ]
L:1/8
Q:1/4=120
M:2/2
K:C
V:1 treble nm="Soprano" snm="S"
V:2 treble nm="Alto" snm="A"
V:3 treble-8 nm="Tenor 1" snm="T 1"
V:4 treble-8 nm="Tenor 2" snm="T 2"
V:1
 z8 | z4 D4 | A6 G2 | c2 d2 B4 | z2 A4 G2- | G2 F2 F2 A2- | AG F4 E2 | A2 D2 E2 F2 | D4 E4- | %9
w: |In|il- lo|tem- po- re,|in il-|* lo tem- *|* * * po-|re, il- lo tem-|po- re,|
 !fermata!E4 A4 | A2 A2 F2 D2 | F4 E2 c2- | cB A4 G2 | A4 z2 A2 | A2 G2 FEFG | A2 d2 d2 c2- | %16
w: _ ac-|ces- se- runt ad|Je- sum, Je-||sum Pha-|ri- sae- * * * *|i, Pha- ri- sae-|
 c2 B2 A2 G2 | A4 G3 F | E2 D2 F2 G2 | E4 D4 | z8 | z2 G2 F2 D2 | F3 G ABcA | BG c4 B2 | %24
w: * i, di- cen-|tes, di- *|* cen- * *|* tes:||si li- cet|ho- * * * * *|* * * mi-|
 A2 A2 G3 F | E2 A2 A2 F2 | G4 C2 c2 | d2 A2 B2 A2 | G2 A2 c3 B/A/ | B2 A4 GF | G4 F2 F2- | %31
w: ni di- mit- te-|re u- xo- rem|su- am, qua-|cum- que ex cau-|||* sa, qui|
 F2 F2 c3 B | AGFE D2 d2 | c3 B AG c2- | c2 B2 c4 | z4 A4- | A2 A2 G4 | F3 E/D/ E4 | z4 z2 A2- | %39
w: _ res- pon- *|* * * * dens a-||* * it:|non|_ le- gis-|* * * tis,|qui-|
 A2 G2 A2 B2 | c2 c4 B2 | c2 B2 G2 G2- | GA B2 c2 B2- | B2 A4 G2 | A8 | z4 z2 d2- | d2 c2 A2 c2 | %47
w: * a [qui] fe-|cit ho- mi-|nem ab i- ni-||* * ti-|o,|ma-|* scu- lum et|
 c3 B A2 F2 | G2 A3 G/F/ G2 | A8- | A8- | A8 ||"^SECUNDA PARS" A6 A2 | B4 A4- | A2 A2 A4 | B4 c4 | %56
w: fe- mi- nam fe-|cit e- * * *|os.|_||Pro- pter|hoc di-|* mit- tet|ho- mo|
 c6 c2 | A2 d3 c B2 | A8 | z4 z2 E2 | E2 F2 G4 | A2 A2 G2 F2- | F2 ED E2 F2 | D4 z2 A2- | %64
w: pa- trem|et ma- * *|trem|et|ad- hae- re-|bit u- xo- ri|_ su- * * *|ae, et|
 A2 D2 F4 | E4 D2 d2- | d2 A2 c4 | B4 A2 A2- | A2 A2 c3 B/A/ | B2 A4 G2 | A8 | z4 z2 A2 | %72
w: _ e- runt|du- o, et|_ e- runt|du- o in|_ car- ne _ _|_ u- *|na.|Quod|
 d4 c2 c2 | d4 c2 A2 | B4 A4- | A2 c2 B2 A2- | A2 G2 A4 | z2 F2 G4 | E4 F2 G2 | A3 G FD G2 | %80
w: er- go De-|us con- iun-|xit, con-|* iun- * *|* * xit|ho- mo|non se- pa-||
 F4 z2 D2- | D2 E2 C2 D2 | E2 F2 G2 G2- | G2 A2 F2 G2 | AGAB c4 | B4 A4 | z8 |"^b" z2 A2 B2 A2 | %88
w: ret, ho-|* mo non se-|pa- * ret, ho-|* mo non se-|pa- * * * *|* ret,||ho- mo non|
"^-natural" A3 B c2 B2 | A6 GF |"^#" E4 F4- | F8 |] %92
w: se- * * pa-||* ret.|_|
V:2
 z8 | z8 | z4 D4 | A6 G2 |"^b" c2 d2 B4 | A8 | z2 A3 B c2- | c2 B4 A2- | A2 G2 A4- | %9
w: ||In|il- lo|tem- * po-|re,|in _ il-|* lo tem-|* po- re,|
 !fermata!A4 z4 | z8 | A4 A2 A2 | G2 F4 ED | E2 F2 F4 | z2 d4 d2 | c2 B2 A3 G | E2 G2 A2 c2- | %17
w: _||ac- ces- se-|runt ad _ _|_ Je- sum|Pha- ri-|sae- * * *|* i di- cen-|
 c2 BA B2 G2- | GA B2 c2 B2 | A4 z2 d2 | c2 B2 c2 d2 | G4 z2 A2 | A3 G F2 E2 | G2 A2 G4 | %24
w: |* * tes, di- cen-|tes: Si|li- cet ho- mi-|ni di-|mit- te- re u-|xo- rem su-|
 E2 c2 c4- | c2 A2 c2 d2 |"^b" B4 A4 | z2 F2 G2 D2 | E2 F2 G2 A2 | G2 d2 c2 B2- |"^b" B2 G2 B2 A2 | %31
w: am, u- xo-|* rem su- *|* am,|qua- cum- que|ex cau- * *|sa, qua- cum- que|_ ex cau- sa,|
 z2 A2 A2 c2- | cB A4 G2 | A3 B c2 A2 | G2 F2 G4 | A4 z2 c2- | c2 c2 B4 | A4 z2 A2- | A2 G2 A2 c2 | %39
w: qui res- pon-||dens _ _ a-||it: non|_ le- gis-|tis, qui-|* a qui fe-|
 c3 B/c/ d2 G2 | A3 G E2 G2 | F4 E2 CD | EF G2 FE E2- | ED/C/ D2 E4 | C4 z2 A2- | A2 A2 F2 G2 | %46
w: cit _ _ _ ho-||mi- nem ab _|_ _ _ in- * i-|* * * * ti-|o, ma-|* scu- lum et|
 A3 A A2 G2 | F2 E4 D2- | DE F4 ED | E2 C2 F4 | E4 F4- | F8 || F6 F2 | G4 E4 | E6 E2 | G4 A4 | %56
w: fe- mi- nam fe-|cit e- *||* os, e-|* os.|_|Pro- pter|hoc di-|mit- tet|ho- mo|
 G3 F G2 A2- | A2 A2 G4 | E2 E2 E2 E2 | G2 A2 B2 c2- | c2 c2 B2 G2 | c3 B/A/ B4 | A2 c3 B A2- | %63
w: pa- * * trem|_ et ma-|trem, et ad- hae-|re- bit u- xo-|* ri su- *||ae, u- xo- ri|
 A2 G2 A4 | z2 d4 A2 | c2 BA B2 B2 | A2 A4 E2 | G2 G2 F4- | F2 F2 G2 G2- | G2 F2 E4- | E4 z4 | %71
w: _ su- ae,|et e-|runt _ _ _ du-|o, e- *|runt du- o|_ in car- ne|_ u- na.|_|
 E4 A4 | G2 G2 A4 | D2 F2 E2 C2 | D2 E4 D2- | D2 C2 F2 D2 | E4 z2 A2- |"^b" A2 B4 G2- | G2 A4 B2 | %79
w: Quod er-|go De- us|con iun- xit, quod|er- go De|_ us con- iun-|xit ho-|* mo non|_ se- pa-|
 c4 z4 | z4 A4 | B2 G2 A2 B2 | c6 B2- | B2 c2 A2 c2- | cB A2 G2 A2- | A2 G2 A2 E2 | F2 D2 E2 F2 | %87
w: ret,|ho-|mo non se- pa-|ret, ho-|* mo non se-|* * pa- ret, ho-|* mo non se-||
 G2 FE D2 D2 | C2 A2 A2 G2 |"^b" F3 G A2 B2 | A4 A4- | A8 |] %92
w: * * * * pa-|ret, ho- mo non|se- * * pa-|* ret.|_|
V:3
 A4 d4- | d2 c2 f2 g2 | e2 f4 ed | e2 f4 ed |"^b" c2 f2 d3 c/B/ | c2 d2 A2 A2 | d6 c2 | f2 g4 f2- | %8
w: In il-|* lo tem- po-|re, tem- * *|* * po- *|re, tem- * * *|* po- re, in|il- lo|tem- * *|
 f2 ed c4- | !fermata!c4 z4 | z4 d4 | d2 d2 c2 A2 |"^b" c2 d2 B4 | A2 d4 d2 | c2 B2 d3 e | %15
w: * po- * re,|_|ac-|ces se- runt ad|Je- sum Pha-|ri- sae- i|di- cen- * *|
 f2 g2 d2 e2 | c2 d3 c e2 | ABcd edef | g2 G2 c2 d2- |"^#" d2 c2 d4 | z2 d2 c2 B2 | c2 c2 d2 A2 | %22
w: |||* * tes, di-|* cen- tes:|Si li- cet|ho- mi- ni di-|
 d3 d d2 c2 | e2 f2 d4 | c2 c2 edef | g2 f2 ec f2- | f2 e2 f4 | z4 z2 f2 | g2 d2 e2 f2 | %29
w: mit- te- re u-|xo- rem su-|am, u- xo- * * *|* rem su- * *|* * am,|qua-|cum- que ex cau-|
 d2 f3 e d2- | d2 c2 d2 d2- | d2 d2 c3 d | e2 f4 ed | e2 f2 c3 d | e2 f4 e2 | f4 z2 f2- | %36
w: |* * sa, qui|_ res- pon- *||* dens a- *||it: non|
 f2 f2 d4 | d2 d4 c2 | d2 e2 f2 f2- | f2 e2 d2 B2 | A3 B cd e2- | e2 d2 edef | g2 G2 A2 B2 | %43
w: _ le- gis-|tis, qui- a|qui fe- cit ho-|* mi- nem ab|in- * * * i-|* ti o, _ _ _|_ ab in- i-|
 c2 A2 B2 e2- | e2 e2 c4- | c2 d2 c2 d2 | e2 e2 f2 d2 | c4 z2 d2 |"^b" B2 c2 d4 | c2 e4 d2- | %50
w: * ti- o ma-|* scu- lum|_ et fe- mi-|nam fe- cit e-|os, et|fe- mi- nam|fe- cit e-|
"^#" d2 c2 d4- | d8 || d6 d2 | d4 c4 | c6 c2 | d4 f4 | e6 e2 | f4 d4 | c8 | z2 e2 f2 g2 | %60
w: * * os.|_|Pro- pter|hoc di-|mit- tet|ho- mo|pa- trem|et ma-|trem|et ad- hae-|
 a2 c2 d2 e2 | f2 c2 e2 d2- | dcAB c2 d2 |"^b" B4 A2 c2- | cB/A/Bc d4 | z2 g4 d2 | f3 f e3 d/c/ | %67
w: re- bit u- xo-|ri su- * *|* * * * ae, u-|xo- ri su-|* * * * * ae,|et e-|runt du- * * *|
 d2 d4 A2 | cBcd e4 | d2 c2 B4 | A4 z2 d2 | g4 f2 f2 | gfed e4 | f2 a3 gef | g4 f2 d2 | e4 dcBA | %76
w: o in car-||* ne u-|na. Quod|er- go De-|us _ _ _ _|con- iun- * * *|||
 B4 d4- | d4 e3 d | c2 c2 d2 B2 | A2 c2 d2 e2- | e2 d2 e2 f2 | g3 f e2 g2 | c4 z2 d2 | %83
w: xit ho-|* mo _|_ non se- pa-|ret, ho- mo non|_ se- pa- *||ret, ho-|
 e2 c2 d2 e2 | f4 e3 d/e/ | f2 ed c2 c2- |"^b" c2 d2 B2 c2 | d3 e f2 d2 | e6 e2 | c2 f3 e d2- | %90
w: mo non se- *|pa- * * *|* * * ret, ho-|* mo non se-|pa- * * ret,|ho- mo|non se- * *|
"^#" d2 c2 d4- | d8 |] %92
w: * pa- ret.|_|
V:4
 z4 D4 | A6 G2 | c2 d2 B4 | A2 D2 D2 E2 | F2 D2 G4 | z8 | D4 A4- | A2 G2 c2 d2 |"^b" B4 A4- | %9
w: In|il- lo|tem- po- re,|in il- lo tem-|* po- re,||in il-|* lo tem- *|po- re,|
 !fermata!A4 z4 | z8 | z8 | z2 d2 d2 d2 | c2 d2 D3 E | F2 G2 D4 | z4 z2 A2 | A2 G2 F2 E2 | %17
w: _|||ac- ces- se-|runt ad Je- *|* * sum|Pha-|ri- sae- i di-|
 F4 E2 c2 | c2 B2 A2 G2 | A4 D3 E | F2 G2 A2 GF |"^b" E4 D4- | D4 z2 A2 | G2 F2 G3 G | A2 F2 c3 c | %25
w: cen- tes, Pha-|ri- sae- i di-|cen- tes, _|_ di- cen- * *|* tes:|_ si|li- cet ho- mi-|nem di- mit- te-|
"^b" c2 F2 A2 B2 | G4 F4- | F4 z4 | z4 z2 F2 | G2 D2 E2 G2 | E4 D4 | z4 A4- |"^b" A2 A2 B4 | %33
w: re u- xo- rem|su- am,|_|qua-|cum- que ex cau-|* sa,|qui|_ res- pon-|
 A2 F3 GAB | c2 d2 c4 | z4 F4- | F2 F2 G4 | DEFG A4 | z8 | z8 | z2 A4 G2 | A2 B2 c2 c2- | %42
w: dens a- * * *|* * it:|non|_ le- gis-|tis _ _ _ _|||fe- cit|ho- mi- nem ab|
 c2 B2 A2 G2 | F4 E4 | z2 A4 A2 | F2 D2 A2 _B2 | A2 A2 F2 G2 |"^b" A3 G A2 B2 |"^b" G2 F2 B4 | %49
w: _ in- i- *|ti- o|ma- scu-|lum et fe- mi-|nam fe- cit e-|os, _ _ fe-|cit e- os,|
 A3 G F2 D2 | A4 D4- | D8 || D6 D2 | G4 A4 | A6 A2 | G4 F4 | c6 c2 | d4 G4 | A2 A4 A2 | %59
w: fe- * * cit|e- os.|_|Pro- pter|hoc di-|mit- tet|ho- mo|pa- trem|et ma-|trem, et ad-|
 B2 c2 d2 c2- | c2 A2 B2 c2 | F4 z4 | z4 z2 d2- | d2 G2 cBAG |"^#" A2 G2 DEFG | A2 G3 ABc | %66
w: hae- re- bit u-|* xo- ri su-|ae,|et|_ e- runt _ _ _|du- o, _ _ _ _|et e- * * *|
 d2 d2 A2 c2 | G4 D2 F2- | F2 F2 CDEF | G2 A2 E4 | z2 A2 d4 | c2 c2 d4 | G2 B2 A4 | z2 D2 A4 | %74
w: runt du- * *|o n car-|* ne u- * * *|* * na.|Quod er-|go De- us|con- iun- xit,|quod er-|
 G2 G2 A4- | A4 D2 F2 | E4 D4 | z8 | z8 | z2 A2 _B2 G2 |"^b" A2 B2 c2 d2 | G2 c4 B2 | %82
w: go- De- us|_ con- iun-|* xit|||ho- mo non|se- pa- ret, ho-|mo non se-|
"^-natural" A4 G4 | z8 | z2 D2 E2 C2 | D2 E2 F2 A2- | A2 _B2 G2 A2 |"^b""^b" B2 d3 c B2 | A6 E2 | %89
w: pa- ret,||ho- mo non|se- pa- ret, ho-|* mo non se-|pa- * * ret,|ho- mo|
 F2 D2 F2 G2 | A4 D4- | D8 |] %92
w: non se- * *|pa- ret.|_|

